X:385
T:Papuselele
T:ABCA
Z:Jack Campin, http://www.campin.me.uk/
F:Jack Campin's Nine-Note Tunebook
% last edit 03-02-2013
O:Dobrogea, Romania
N:see YouTube for the dance
M:12/8
L:1/8
Q:3/4=62
N:each bar is 6/8+3/4
P:ABCA
K:DDor
[P:A]      D2C D2C DE F2 E2|D2C D2C DE  F2 E2|\
           D2C D2C DE F2 E2|D3  A3  D2  D4  :|
[P:B]      G2F G2F GF E2 D2|D2C D2C DE  F2 E2|\
           G2F G2F GF E2 D2|D3  A3  D2  D4  :|
[P:C][K:D] d2d A2A GF E2 D2|D2D A3  F^G A2 z2|\
           d2d A2A GF E2 D2|D2D A3  D2  D4  :|

